polaris-icons/icons/new-icons/AppsMajor.svg

<svg width="20" height="20" viewBox="0 0 20 20" fill="none" xmlns="http://www.w3.org/2000/svg">
<path fill-rule="evenodd" clip-rule="evenodd" d="M3.5 5.75C3.5 4.50736 4.50736 3.5 5.75 3.5H8.5C9.05228 3.5 9.5 3.94771 9.5 4.5V8.5C9.5 9.05228 9.05229 9.5 8.5 9.5H4.5C3.94772 9.5 3.5 9.05229 3.5 8.5V5.75ZM5.75 5C5.33579 5 5 5.33579 5 5.75V8H8V5H5.75Z" fill="#4A4A4A"/>
<path fill-rule="evenodd" clip-rule="evenodd" d="M3.5 14.25C3.5 15.4926 4.50736 16.5 5.75 16.5H8.5C9.05228 16.5 9.5 16.0523 9.5 15.5V11.5C9.5 10.9477 9.05229 10.5 8.5 10.5H4.5C3.94772 10.5 3.5 10.9477 3.5 11.5V14.25ZM5.75 15C5.33579 15 5 14.6642 5 14.25V12H8V15H5.75Z" fill="#4A4A4A"/>
<path fill-rule="evenodd" clip-rule="evenodd" d="M14.25 16.5C15.4926 16.5 16.5 15.4926 16.5 14.25V11.5C16.5 10.9477 16.0523 10.5 15.5 10.5H11.5C10.9477 10.5 10.5 10.9477 10.5 11.5V15.5C10.5 16.0523 10.9477 16.5 11.5 16.5H14.25ZM15 14.25C15 14.6642 14.6642 15 14.25 15H12V12H15V14.25Z" fill="#4A4A4A"/>
<path d="M13.5 3.5C13.9142 3.5 14.25 3.83579 14.25 4.25V5.75H15.75C16.1642 5.75 16.5 6.08579 16.5 6.5C16.5 6.91421 16.1642 7.25 15.75 7.25H14.25V8.75C14.25 9.16421 13.9142 9.5 13.5 9.5C13.0858 9.5 12.75 9.16421 12.75 8.75V7.25H11.25C10.8358 7.25 10.5 6.91421 10.5 6.5C10.5 6.08579 10.8358 5.75 11.25 5.75H12.75V4.25C12.75 3.83579 13.0858 3.5 13.5 3.5Z" fill="#4A4A4A"/>
</svg>

<svg viewBox="0 0 20 20" xmlns="http://www.w3.org/2000/svg"><path fill-rule="evenodd" d="M3.5 5.75a2.25 2.25 0 0 1 2.25-2.25h2.75a1 1 0 0 1 1 1v4a1 1 0 0 1-1 1h-4a1 1 0 0 1-1-1v-2.75Zm2.25-.75a.75.75 0 0 0-.75.75v2.25h3v-3h-2.25Z" fill="#5C5F62"/><path fill-rule="evenodd" d="M3.5 14.25a2.25 2.25 0 0 0 2.25 2.25h2.75a1 1 0 0 0 1-1v-4a1 1 0 0 0-1-1h-4a1 1 0 0 0-1 1v2.75Zm2.25.75a.75.75 0 0 1-.75-.75v-2.25h3v3h-2.25Z" fill="#5C5F62"/><path fill-rule="evenodd" d="M14.25 16.5a2.25 2.25 0 0 0 2.25-2.25v-2.75a1 1 0 0 0-1-1h-4a1 1 0 0 0-1 1v4a1 1 0 0 0 1 1h2.75Zm.75-2.25a.75.75 0 0 1-.75.75h-2.25v-3h3v2.25Z" fill="#5C5F62"/><path d="M13.5 3.5a.75.75 0 0 1 .75.75v1.5h1.5a.75.75 0 0 1 0 1.5h-1.5v1.5a.75.75 0 0 1-1.5 0v-1.5h-1.5a.75.75 0 0 1 0-1.5h1.5v-1.5a.75.75 0 0 1 .75-.75Z" fill="#5C5F62"/></svg>
